**kern	**kern	**kern	**kern
*staff4	*staff3	*staff2	*staff1
=1-	=1-	=1-	=1-
*clefF4	*clefGv2	*clefGv2	*clefG2
*k[b-]	*k[b-]	*k[b-]	*k[b-]
*met(C|)	*met(C|)	*met(C|)	*met(C|)
*M2/2	*M2/2	*M2/2	*M2/2
1GG	0r	0G	0r
2.GG/	.	.	.
4AA/	.	.	.
=2	=2	=2	=2
2BB-/	0r	1G	0r
2.C/	.	.	.
.	.	1E	.
4BB-/	.	.	.
4AA/	.	.	.
4GG/	.	.	.
=3	=3	=3	=3
2AA/	0r	1F	0r
1BB-	.	.	.
.	.	1G	.
[2C/	.	.	.
=4	=4	=4	=4
2C/]	0r	2A/	0r
4BB-/	.	1B-	.
4AA/	.	.	.
2GG/	.	.	.
[2D\	.	4A/	.
.	.	4G/	.
=5	=5	=5	=5
2D\]	0r	2F/	0r
4C/	.	1G	.
4BB-/	.	.	.
1AA	.	.	.
.	.	2F#/	.
=6	=6	=6	=6
1GG	1r	1G	2r
.	.	.	1b-
2r	1d	1r	.
2D\	.	.	[2b-\
=7	=7	=7	=7
!!linebreak:default
2E\	1c	0r	2b-\]
2F\	.	.	2a/
2G\	1B-	.	1g
4F\	.	.	.
4E\	.	.	.
=8	=8	=8	=8
2D\	2.A/	0r	2.f/
4C/	.	.	.
4BB-/	4B-\	.	4g/
2AA/	2c\	.	2a/
2GG/	2d\	.	[2b-\
=9	=9	=9	=9
2G\	2B-\	0r	4b-\]
.	.	.	4a/
2C/	2c\	.	1g
1D	1A	.	.
.	.	.	2f#/
=10	=10	=10	=10
1r	1G	1d	1g
1G	1r	1d	1r
=11	=11	=11	=11
1G	0r	2e\	0r
.	.	2.g\	.
1E	.	.	.
.	.	4f\	.
.	.	4e\	.
.	.	4d\	.
=12	=12	=12	=12
1F	0r	2c\	0r
.	.	1d	.
1G	.	.	.
.	.	2e\	.
=13	=13	=13	=13
2A\	0r	2c\	0r
1B-	.	1d	.
4A\	.	4c\	.
4G\	.	4B-\	.
=14	=14	=14	=14
!!linebreak:default
2F\	0r	2A/	0r
1G	.	2G/	.
.	.	1A	.
2F#\	.	.	.
=15	=15	=15	=15
1G	1r	1G	2r
.	.	.	1b-
1r	1d	2r	.
.	.	[2B-\	4a/
.	.	.	4g/
=16	=16	=16	=16
0r	1d	2B-\]	2f/
.	.	4A/	1b-
.	.	4G/	.
.	1c	2F/	.
.	.	2F/	2a/
=17	=17	=17	=17
0r	1B-	1G	1g
.	2.A/	1D	2.f/
.	4B-\	.	4g/
=18	=18	=18	=18
0r	2c\	0r	2a/
.	2d\	.	2.b-\
.	2B-\	.	.
.	.	.	4a/
.	2c\	.	[2g/
=19	=19	=19	=19
0r	1A	1r	2g/]
.	.	.	2f#/
.	1G	[1d	1g
=20	=20	=20	=20
1G	1r	1d]	0g
1G	1B-	1d	.
=21	=21	=21	=21
!!pagebreak:default
1C	1c	1e-	1g
[1G	1d	2d\	1g
.	.	2B-\	.
=22	=22	=22	=22
1G]	1B-	1d	1b-
1G	1B-	1e	1b-
=23	=23	=23	=23
0F	0c	0f	0a
=24	=24	=24	=24
1F	1c	1f	1a
1C	1c	1e	1g
=25	=25	=25	=25
1D	1A	1d	1f
1AA	2.A/	1c	1e
.	4G/	.	.
=26	=26	=26	=26
2BB-/	2F/	2B-\	2d/
2C/	2E/	2G/	2g/
2D\	2D/	2r	2f/
[2C/	[2G/	[2c\	[2e/
=27	=27	=27	=27
2C/]	2G/]	2c\]	2e/]
2D\	2F/	2B-\	1d
1AA	1E	2.A/	.
.	.	.	2c#/
.	.	4F/	.
=28	=28	=28	=28
!!linebreak:default
1BB-	0D	2.F/	[0d
.	.	4G/	.
2r	.	2A/	.
[2GG/	.	[2B-\	.
=29	=29	=29	=29
2GG/]	1r	2B-\]	0d]
2AA/	.	4A/	.
.	.	4G/	.
2BB-/	1D	1F	.
2BB-/	.	.	.
=30	=30	=30	=30
1C	2E/	1r	0r
.	2E/	.	.
2AA/	1F	1A	.
2AA/	.	.	.
=31	=31	=31	=31
1GG	1G	2B-\	1d
.	.	2B-\	.
1r	2E/	1c	2e/
.	2E/	.	2e/
=32	=32	=32	=32
0r	1D	1d	1f
.	1r	1B-	1g
=33	=33	=33	=33
0r	0r	1c	2e/
.	.	.	2e/
.	.	1d	1d
=34	=34	=34	=34
1D	1r	0r	0r
2D\	1A	.	.
2D\	.	.	.
=35	=35	=35	=35
!!linebreak:default
1F	2A/	0r	0r
.	2A/	.	.
1E	1c	.	.
=36	=36	=36	=36
1D	1B-	0r	0r
1C	1A	.	.
=37	=37	=37	=37
2C/	2.G/	0r	0r
1E-	.	.	.
.	4A/	.	.
.	2B-\	.	.
4D\	[2c\	.	.
4C/	.	.	.
=38	=38	=38	=38
2E-\	2c\]	0r	0r
2D\	1B-	.	.
1C	.	.	.
.	2A/	.	.
=39	=39	=39	=39
1BB-	1B-	1r	1r
2r	1r	1d	1f
[2BB-/	.	.	.
=40	=40	=40	=40
2BB-/]	0r	1d	1f
2D\	.	.	.
2C/	.	2e-\	2g/
2C/	.	2e-\	2g/
=41	=41	=41	=41
2D\	0r	1d	2f/
2BB-/	.	.	1b-
1F	.	1c	.
.	.	.	2a/
=42	=42	=42	=42
!!linebreak:default
0r	2r	1B-	2g/
.	1G	.	1b-
.	.	1d	.
.	2D/	.	[2a/
=43	=43	=43	=43
0r	2F/	2c\	2a/]
.	2G/	2B-\	1g
.	1D	1A	.
.	.	.	2f#/
=44	=44	=44	=44
1r	1d	4G/	1g
.	.	4A/	.
.	.	4B-\	.
.	.	4c\	.
2G\	1r	2d\	1r
2G\	.	2e\	.
=45	=45	=45	=45
1B-	0r	2d\	0r
.	.	1g	.
1A	.	.	.
.	.	2f#\	.
=46	=46	=46	=46
2G\	2G/	1g	0r
1B-	2G/	.	.
.	1B-	1r	.
4A\	.	.	.
4G\	.	.	.
=47	=47	=47	=47
2F\	1A	0r	1r
4G\	.	.	.
4F\	.	.	.
2G\	2G/	.	2g/
[2GG/	[2B-\	.	2g/
=48	=48	=48	=48
4GG/]	2B-\]	0r	1b-
4AA/	.	.	.
4BB-/	4A/	.	.
4C/	4G/	.	.
2D\	1F	.	1a
2AA/	.	.	.
=49	=49	=49	=49
!!pagebreak:default
2BB-/	1G	2G/	2g/
2.GG/	.	2G/	1b-
.	1r	1B-	.
4AA/	.	.	.
4BB-/	.	.	4a/
4C/	.	.	4g/
=50	=50	=50	=50
1D	0r	1A	2f/
.	.	.	4g/
.	.	.	4f/
1r	.	2G/	2g/
.	.	[2B-\	[2d/
=51	=51	=51	=51
1r	0r	2B-\]	2d/]
.	.	4A/	4c/
.	.	4G/	4B-/
1D	.	2F/	1A
.	.	4G/	.
.	.	4F/	.
=52	=52	=52	=52
2BB-/	1r	1G	1G
2C/	.	.	.
2GG/	1d	1r	1r
2BB-/	.	.	.
=53	=53	=53	=53
2AA/	2c\	0r	1r
2AA/	2c\	.	.
1GG	2B-\	.	1d
.	2B-\	.	.
=54	=54	=54	=54
1r	2A/	0r	2c/
.	2A/	.	2c/
2r	1G	.	2B-/
[2G\	.	.	2B-/
=55	=55	=55	=55
2G\]	1D	0r	2A/
2F\	.	.	2A/
2G\	1r	.	2G/
2D\	.	.	[2b-\
=56	=56	=56	=56
!!linebreak:default
1F	0r	2c\	2b-\]
.	.	2c\	1a
1G	.	2B-\	.
.	.	2B-\	[2g/
=57	=57	=57	=57
1D	0d	2A/	2g/]
.	.	2A/	2f#/
1GG	.	1G	1g
=58	=58	=58	=58
1r	1d	2r	0r
.	.	2B-\	.
1GG	[1d	2B-\	.
.	.	4A/	.
.	.	4G/	.
=59	=59	=59	=59
1BB-	1d]	2F/	0r
.	.	1G	.
2AA/	1c	.	.
2AA/	.	2F#/	.
=60	=60	=60	=60
1GG	0B-	1G	1d
1r	.	1r	1f
=61	=61	=61	=61
1r	1G	2g\	1e
.	.	2g\	.
1D	1B-	2f\	1d
.	.	4e\	.
.	.	4d\	.
=62	=62	=62	=62
1F	1A	2c\	1r
.	.	1d	.
1E	1G	.	2g/
.	.	2c#\	2g/
=63	=63	=63	=63
!!linebreak:default
2D\	0r	1d	2f/
1F	.	.	4e/
.	.	.	4d/
.	.	1A	2c/
4E\	.	.	[2d/
4D\	.	.	.
=64	=64	=64	=64
1E	1G	0r	2d/]
.	.	.	2c#/
1D	2A/	.	2d/
.	[2B-\	.	2f/
=65	=65	=65	=65
1r	2B-\]	0r	2g/
.	2c\	.	1a
1D	[1d	.	.
.	.	.	[2b-\
=66	=66	=66	=66
0E-	2d\]	0r	4b-\]
.	.	.	4a/
.	4c\	.	4g/
.	4B-\	.	4f/
.	1c	.	1g
=67	=67	=67	=67
1D	0d	1F	1f
1BB-	.	2G/	1r
.	.	[2B-\	.
=68	=68	=68	=68
1C	0e-	2B-\]	0r
.	.	4A/	.
.	.	4G/	.
1C	.	1A	.
=69	=69	=69	=69
1BB-	1d	0B-	1f
1BB-	1B-	.	2g/
.	.	.	[2b-\
=70	=70	=70	=70
!!linebreak:default
1F	1c	0r	2b-\]
.	.	.	4a/
.	.	.	4g/
1F	1c	.	1a
=71	=71	=71	=71
0BB-	1B-	1f	0b-
.	1r	1f	.
=72	=72	=72	=72
0r	1B-	1d	0r
.	1B-	1f	.
=73	=73	=73	=73
0r	1G	2.e\	0r
.	.	4c\	.
.	1B-	2d\	.
.	.	[2g\	.
=74	=74	=74	=74
0r	2A/	2g\]	0r
.	2F/	1f	.
.	1G	.	.
.	.	2e\	.
=75	=75	=75	=75
2r	1F	0f	0r
1BB-	.	.	.
.	1F	.	.
[2D\	.	.	.
=76	=76	=76	=76
2D\]	1A	0r	0r
2F\	.	.	.
2E\	2c\	.	.
[2F\	2c\	.	.
=77	=77	=77	=77
!!pagebreak:default
2F\]	2A/	0r	0r
4E\	1c	.	.
4D\	.	.	.
2C/	.	.	.
[2F\	4B-\	.	.
.	4A/	.	.
=78	=78	=78	=78
2F\]	1G	1r	0r
2E\	.	.	.
1F	1F	1c	.
=79	=79	=79	=79
0r	0r	1c	1a
.	.	1d	1a
=80	=80	=80	=80
0r	0r	1d	1b-
.	.	1e	1g
=81	=81	=81	=81
0r	0r	2c\	1a
.	.	2.d\	.
.	.	.	1f
.	.	4c\	.
.	.	4B-\	.
.	.	4A/	.
=82	=82	=82	=82
0r	0r	2G/	1g
.	.	2B-\	.
.	.	2A/	2f/
.	.	[2d\	2d/
=83	=83	=83	=83
0r	0r	2d\]	1e
.	.	2c#\	.
.	.	1d	1d
=84	=84	=84	=84
!!linebreak:default
2r	2B-\	0r	0r
1G	2B-\	.	.
.	1A	.	.
2F\	.	.	.
=85	=85	=85	=85
2G\	1G	0r	0r
1E-	.	.	.
.	2G/	.	.
4D\	[2B-\	.	.
4C/	.	.	.
=86	=86	=86	=86
1E-	2B-\]	0r	0r
.	4A/	.	.
.	4G/	.	.
2BB-/	2B-\	.	.
[2D\	[2A/	.	.
=87	=87	=87	=87
2D\]	2A/]	0r	0r
4C/	1G	.	.
4BB-/	.	.	.
1AA	.	.	.
.	2F#/	.	.
=88	=88	=88	=88
1GG	1G	2d\	2b-\
.	.	2d\	2b-\
2G\	1r	2d\	2b-\
2G\	.	2d\	2b-\
=89	=89	=89	=89
2F\	0r	1f	1a
2D\	.	.	.
2E\	.	2e\	2g/
2D\	.	[2f\	[2a/
=90	=90	=90	=90
2r	1A	2f\]	2a/]
2D\	.	4e\	4g/
.	.	4d\	4f/
1AA	1A	1c	1e
=91	=91	=91	=91
!!linebreak:default
1BB-	2F/	1d	1d
.	1B-	.	.
1GG	.	1r	1g
.	4A/	.	.
.	4G/	.	.
=92	=92	=92	=92
1D	1A	1d	1f
[1GG	2G/	[1d	1g
.	[2B-\	.	.
=93	=93	=93	=93
2GG/]	2B-\]	2d\]	0b-
2AA/	2A/	2c\	.
2BB-/	1G	2d\	.
2C/	.	2e\	.
=94	=94	=94	=94
1D	1F	2f\	1a
.	.	1d	.
1E-	1G	.	1g
.	.	2c\	.
=95	=95	=95	=95
[0D	[0A	0d	[0f#
=96	=96	=96	=96
0D]	0A]	[0d	0f#]
=97	=97	=97	=97
0GG	0G	0d]	0g
==	==	==	==
*-	*-	*-	*-
